X:4
T:Lyra
M:3/4
L:1/8
R:waltz
K:D
C:Andy Letcher
DF | A2_B2GF | A4DF | A2_BGdA | GDA2DF | A2_B2GF | A4 GF | GDE4- | E4 :|: DE | F3GFD | =F2_B2c2 | A2d4 | c_BAGFG | A3_BA2 | GFEDEF | GDE4- | E4:| ]



